X:758
T:True Britannia
C:Colin Hume, 1997
L:1/8
M:6/8
S:Colin Hume's website,  colinhume.com  - chords can also be printed below the stave.
Q:1/2=100
K:G
P:A
[| D | "G"G3 "C"G3 | "D7"ABc "G"d2G | "Am"A2A "D7"ABc | "G"B3- "/"B2D | "G"GAB "Am"ABc | "D7"d2A "G"B2A | "Em"GAB "A7"A2G | "D"F3- "/"F2D |
P:B
"D"F2D "D/C#"A2F | "Bm"d^cB "A7"A2G | "D"F2D "A7"E2^C | "D"D3 "D7"DEF |
P:C
"G"G3 "G7"G2D | "C"E2C- "/"C2G | "Am"c2B "A7/C#"A2G | "D"F3- "/"F2A | "G"d3 "D7"c3 | "Em"BGc "D7"Adc | "G"B3 "D7/F#"A3 | "G"G3- "/"GGA |
P:D
"G"Bz2 "G7"Bz2 | "C"cz2 "/"czB | "Am"c2B "A7/C#"A2G | "D"F3- "/"F2A | "G"d3 "D7"c3 | "Em"BGc "D7"Adc | "G"B3 "D7/F#"A3 | "G"G3- "/"G2 |]
M:2/2
L:1/4
P:Final D
"G7"B2- "/"BB | "C"cc "/"zB | "Am"c3/B/ "A7"A3/G/ | "D"F/D/E/F/ G/A/B/c/ | "G"d2 "D7"c2 | "G"B/G/ "Am"c/A/ "G/B"d "C"c | "G/D"B2 "D7"A2 | "G"G2 "/"G,2 |]

